X:27
T:Farewell New England Shores
C:Roy Watrous, 1981
S:The Watrous Book, 1992
M:3/4
L:1/4
Q:1/4=120
K:Bm
%%MIDI program 72
%%MIDI transpose 8
%%MIDI ratio 3 1
F|B2f|e2d|c>BA|B2F|Bdf|a^ge|f3-|ffa|
b2b|a>gf|e2c|A2F|B2f|ecA|B3-B2z|]

